X:1
T:c
L:1/4
M:4/4
I:linebreak $
K:G
V:1 treble nm="Voice" snm="Voice"
V:1
 D |: G B A B | c A B2 | A/B/A/G/ F D | A/B/A/G/ F D |$"G" G B A B | c A B2 |"D" A/B/A/G/ F D |1 %8
 G3 D |]2 G3 D |:$ E2 G2 | c3 B |"D" A/B/A/G/ F D | A/B/A/G/ F D |$ E2 G2 | c3 B | A/B/A/G/ F D |1 %17
 G3 D :|2 G2 G z |] %19
